usr/share/icons/biglinux-icons-material-dark/22/actions/swap-panels.svg

<svg xmlns="http://www.w3.org/2000/svg" viewBox="0 0 22 22">
  <defs id="defs3051">
    <style type="text/css" id="current-color-scheme">
      .ColorScheme-Text {
        color:#dedede;
      }
      </style>
  </defs>
 <path 
    style="fill:currentColor;fill-opacity:1;stroke:none" 
    d="M 3 3 L 3 19 L 9 19 L 9 18 L 4 18 L 4 7 L 9 7 L 9 9 L 10 9 L 10 7 L 10 3 L 3 3 z M 11 3 L 11 9 L 12 9 L 12 7 L 13 7 L 18 7 L 18 12 L 19 12 L 19 3 L 13 3 L 12 3 L 11 3 z M 11.292969 10 L 8.5 12.792969 L 7.7929688 13.5 L 8.5 14.207031 L 11.292969 17 L 12 16.292969 L 9.7070312 14 L 15 14 L 15 13 L 14 13 L 13 13 L 9.7070312 13 L 12 10.707031 L 11.292969 10 z M 16.707031 13 L 16 13.707031 L 18.292969 16 L 13 16 L 13 17 L 14 17 L 15 17 L 18.292969 17 L 16 19.292969 L 16.707031 20 L 19.5 17.207031 L 20.207031 16.5 L 19.5 15.792969 L 16.707031 13 z "
	class="ColorScheme-Text"
    />  
</svg>

<svg xmlns="http://www.w3.org/2000/svg" viewBox="0 0 22 22">
<defs id="defs3051">
<style id="current-color-scheme" type="text/css">
.ColorScheme-Text{color:#dedede}
</style>
</defs>
<path d="M3 3v16h6v-1H4V7h5v2h1V3zm8 0v6h1V7h6v5h1V3zm.293 7L8.5 12.793l-.707.707.707.707L11.293 17l.707-.707L9.707 14H15v-1H9.707L12 10.707zm5.414 3-.707.707L18.293 16H13v1h5.293L16 19.293l.707.707 2.793-2.793.707-.707-.707-.707z" class="ColorScheme-Text" style="fill:currentColor;fill-opacity:1;stroke:none"/>
</svg>
